modules/hawcons-stroke/icons/icon-124-printer-text.svg

<?xml version="1.0" encoding="UTF-8" standalone="no"?>
<svg width="32px" height="32px" viewBox="0 0 32 32" version="1.1" xmlns="http://www.w3.org/2000/svg" xmlns:xlink="http://www.w3.org/1999/xlink" xmlns:sketch="http://www.bohemiancoding.com/sketch/ns">
    <!-- Generator: Sketch 3.0.3 (7891) - http://www.bohemiancoding.com/sketch -->
    <title>icon 124 printer text</title>
    <desc>Created with Sketch.</desc>
    <defs></defs>
    <g id="Page-1" stroke="none" stroke-width="1" fill="none" fill-rule="evenodd" sketch:type="MSPage">
        <g id="icon-124-printer-text" sketch:type="MSArtboardGroup" fill="#929292">
            <path d="M26,27 L28.0057181,27 C29.6594143,27 31,25.6556493 31,24.0005775 L31,14.9994225 C31,13.3428872 29.6594313,12 28.0057181,12 L26,12 L26,4.99961498 C26,3.89525812 25.1090746,3 24.0025781,3 L8.99742191,3 C7.89427625,3 7,3.88743329 7,4.99961498 L7,12 L7,12 L4.99428189,12 C3.34058566,12 2,13.3443507 2,14.9994225 L2,24.0005775 C2,25.6571128 3.3405687,27 4.99428189,27 L7,27 L7,28.000385 C7,29.1047419 7.89092539,30 8.99742191,30 L24.0025781,30 C25.1057238,30 26,29.1125667 26,28.000385 L26,27 L26,27 L26,27 Z M7,26 L5.00732994,26 C3.89833832,26 3,25.1033337 3,23.9972399 L3,15.0027601 C3,13.8935426 3.89871223,13 5.00732994,13 L27.9926701,13 C29.1016617,13 30,13.8966663 30,15.0027601 L30,23.9972399 C30,25.1064574 29.1012878,26 27.9926701,26 L26,26 L26,20 L7,20 L7,26 L7,26 L7,26 Z M8.9999602,4 C8.44769743,4 8,4.45303631 8,4.99703014 L8,12 L25,12 L25,4.99703014 C25,4.4463856 24.5452911,4 24.0000398,4 L8.9999602,4 L8.9999602,4 Z M8,21 L8,28.0029699 C8,28.5536144 8.45470893,29 8.9999602,29 L24.0000398,29 C24.5523026,29 25,28.5469637 25,28.0029699 L25,21 L8,21 L8,21 Z M25,17 C25.5522848,17 26,16.5522848 26,16 C26,15.4477152 25.5522848,15 25,15 C24.4477152,15 24,15.4477152 24,16 C24,16.5522848 24.4477152,17 25,17 L25,17 Z M9,23 L9,24 L24,24 L24,23 L9,23 L9,23 Z M9,26 L9,27 L24,27 L24,26 L9,26 L9,26 Z" id="printer-text" sketch:type="MSShapeGroup"></path>
        </g>
    </g>
</svg>

<svg width="32" height="32" xmlns="http://www.w3.org/2000/svg"><path d="M26 27h2.006A2.998 2.998 0 0 0 31 24v-9c0-1.657-1.34-3-2.994-3H26V5c0-1.105-.89-2-1.997-2H8.997A1.994 1.994 0 0 0 7 5v7H4.994A2.998 2.998 0 0 0 2 15v9c0 1.657 1.34 3 2.994 3H7v1c0 1.105.89 2 1.997 2h15.006A1.994 1.994 0 0 0 26 28v-1zM7 26H5.007A2.005 2.005 0 0 1 3 23.997v-8.994C3 13.893 3.899 13 5.007 13h22.986c1.109 0 2.007.897 2.007 2.003v8.994c0 1.11-.899 2.003-2.007 2.003H26v-6H7v6zM9 4c-.552 0-1 .453-1 .997V12h17V4.997c0-.55-.455-.997-1-.997H9zM8 21v7.003c0 .55.455.997 1 .997h15c.552 0 1-.453 1-.997V21H8zm17-4a1 1 0 1 0 0-2 1 1 0 0 0 0 2zM9 23v1h15v-1H9zm0 3v1h15v-1H9z" fill="#929292" fill-rule="evenodd"/></svg>
